icon-themes/sifr_svg/cmd/sc_lineendstyle.svg

<svg viewBox="0 0 16 16" xmlns="http://www.w3.org/2000/svg"><path d="m5 1c-.30945 0-.55232.0903-.75.28125l-3.25 2.84375v1.7050781c1.0834647.9581337 2.1665323 2.0680427 3.25 2.8886719.19768.19095.44055.28125.75.28125h.5859375.4140625v-1c0-.25689-.12983-.52846-.3125-.71875l-1.5097656-1.28125h10.8222656v-2h-10.8222656l1.5097656-1.28125c.18267-.19029.3125-.46186.3125-.71875v-1h-.4140625zm7 8c-1.269803.00178-2.4009506.8028139-2.8242188 2h-8.1757812v2h8.1738281c.4235078 1.197861 1.5556519 1.999046 2.8261719 2 1.656852.000002 2.999997-1.343144 3-3-.000003-1.656856-1.343148-3.0000016-3-3z" fill="#555753"/></svg>

<svg xmlns="http://www.w3.org/2000/svg" viewBox="0 0 16 16">
  <path
     style="fill:#555753"
     d="M 5 1 C 4.69055 1 4.44768 1.0903 4.25 1.28125 L 1 4.125 L 1 5.8300781 C 2.0834647 6.7882118 3.1665323 7.8981208 4.25 8.71875 C 4.44768 8.9097 4.69055 9 5 9 L 5.5859375 9 L 6 9 L 6 8 C 6 7.74311 5.87017 7.47154 5.6875 7.28125 L 4.1777344 6 L 15 6 L 15 4 L 4.1777344 4 L 5.6875 2.71875 C 5.87017 2.52846 6 2.25689 6 2 L 6 1 L 5.5859375 1 L 5 1 z M 12 9 C 10.730197 9.00178 9.5990494 9.8028139 9.1757812 11 L 1 11 L 1 13 L 9.1738281 13 C 9.5973359 14.197861 10.72948 14.999046 12 15 C 13.656852 15.000002 14.999997 13.656856 15 12 C 14.999997 10.343144 13.656852 8.9999984 12 9 z "
     />
</svg>
